UI/POI/SVG/airport_outline_24px.svg

<svg width="24" height="24" viewBox="0 0 24 24" fill="none" xmlns="http://www.w3.org/2000/svg">
<path d="M6.47 5.56996L8.87 6.32996L8.11 7.13996L6.47 5.56996ZM5 2.99996L3 4.99996L8.18 9.99996L12.5 5.39996L5 2.99996ZM20.41 3.86996C20.3229 4.83299 20.0333 5.76674 19.56 6.60996L17.56 8.66996L16.81 9.43996L17.05 10.5L18.46 16.8L15.63 12.8L14.44 11.13L12.8 12.4L8.8 15.4H8.73V15.25H8.58C11.78 11.65 16.74 6.08996 17.44 5.38996C18.3456 4.7105 19.36 4.18977 20.44 3.84996L20.41 3.86996ZM21.17 1.70996C19.266 1.97345 17.4745 2.76698 16 3.99996C15 4.99996 7 14 7 14L3.41 14.59L2 16L7 17L8 22L9.41 20.59L10 17L14 14L19 21L21 19L19 10.06L21 7.99996C22 6.99996 23 2.99996 22 1.99996C21.7598 1.80067 21.451 1.70371 21.14 1.72996L21.17 1.70996Z" fill="#0F1621"/>
</svg>

<svg xmlns="http://www.w3.org/2000/svg" width="24" height="24" viewBox="0 0 24 24"><rect width="24" height="24" style="fill:none"/><path d="M6.47,5.57l2.4.76-.76.81L6.47,5.57M5,3,3,5l5.18,5,4.32-4.6L5,3Zm15.41.87a6.86,6.86,0,0,1-.85,2.74l-2,2.06-.75.77.24,1.06,1.41,6.3-2.83-4-1.19-1.67L12.8,12.4l-4,3-.07,0,0-.15-.15,0c3.2-3.6,8.16-9.16,8.86-9.86a10,10,0,0,1,3-1.54m.73-2.14A10.25,10.25,0,0,0,16,4C15,5,7,14,7,14l-3.59.59L2,16l5,1,1,5,1.41-1.41L10,17l4-3,5,7,2-2-2-8.94L21,8c1-1,2-5,1-6a1.19,1.19,0,0,0-.86-.27Z"/></svg>
